X:1
T:Lasses of Melross, The
M:6/8
L:1/8
S:Aird, Vol. II (1782)
Z:AK/Fiddlers Companion
K:G
d \
| "G"B>AB "Em"GAB | "Am"c>Bc "D7"ABc | "G"BAB    "Em"GAB | "D7"AFD D2c \
| "G"BAB  "Em"GAB | "Am"cBc  "D7"ABc | "G"B{c}dB "D7"cAF |  "G"G3  G2 :|
|: f \
| "G"gbg "Em"gbg | "Am"ac'a "D7"ac'a | "G"gbg "Em"gbg | "D7"afd d2f \
| "G"gbg "Em"gbg | "Am"ac'a "D7"abc' | "G"bag "D7"agf |  "G"g3  g2 :|
